X: 3
T:Nutting We Will go, Eynsham 2
M:4/4
L:1/8
A:Eynsham
P:A12
K:D
P:A
A|Addd cBAG|Addd c3B|Addc  BAGF |EFGB B2AF|
DFFA AGEC|DFAB A3F|GBE>G FAD>F|GABc d3  ||
